!! 00000] TT[WS
!!!OTL: Pa laopuo
!!!ARE: Asia, China,ÿShanxi Dingxiang
!! Ethnic Group: Han
!! WI, 221 (1)
!!!SCT: J0263
!!!YEM: Copyright 1995, estate of Helmut Schaffrath.
**kern
*ICvox
*Ivox
*M2/4
*k[b-e-]
*B-:
{4.ddd
8ddd
=1
8fff
8eee-
4ddd
=2
8aa
8ccc
8ddd
8ccc
=3
8gg
8ff
4dd}
=4
{8ddd
8aa
8ccc
8ddd
=5
8.ddd
16ccc
8bb-
8aa
=6
8ddd
8aa
8gg
8dd
=7
2ff}
==
!!!AGN: Xiaodiao. Qingge
!!!ONB: ESAC (Essen Associative Code) Database: CHINA
!!!AMT: simple duple
!!!AIN: vox
!!!EED: Helmut Schaffrath
!!!EEV: 1.0
*-
